app/assets/images/heroicons/micro/arrow-down-on-square-stack.svg

<svg width="16" height="16" viewBox="0 0 16 16" fill="none" xmlns="http://www.w3.org/2000/svg">
<path d="M7 1C7.41421 1 7.75 1.33579 7.75 1.75L7.75 6H6.25V1.75C6.25 1.33579 6.58579 1 7 1Z" fill="#0F172A"/>
<path d="M6.25 6L6.25 8.93934L5.03033 7.71967C4.73744 7.42678 4.26256 7.42678 3.96967 7.71967C3.67678 8.01256 3.67678 8.48744 3.96967 8.78033L6.46967 11.2803C6.76256 11.5732 7.23744 11.5732 7.53033 11.2803L10.0303 8.78033C10.3232 8.48743 10.3232 8.01256 10.0303 7.71967C9.73744 7.42677 9.26256 7.42677 8.96967 7.71967L7.75 8.93934V6L10 6C11.1046 6 12 6.89543 12 8V11C12 12.1046 11.1046 13 10 13H4C2.89543 13 2 12.1046 2 11V8C2 6.89543 2.89543 6 4 6L6.25 6Z" fill="#0F172A"/>
<path d="M4.26758 14C4.61339 14.5978 5.25973 15 6.00002 15H12C13.1046 15 14 14.1046 14 13V10C14 9.25972 13.5978 8.61337 13 8.26756V11C13 12.6569 11.6569 14 10 14H4.26758Z" fill="#0F172A"/>
</svg>

<svg xmlns="http://www.w3.org/2000/svg" viewBox="0 0 16 16" fill="currentColor" aria-hidden="true" data-slot="icon">
  <path d="M7 1a.75.75 0 0 1 .75.75V6h-1.5V1.75A.75.75 0 0 1 7 1ZM6.25 6v2.94L5.03 7.72a.75.75 0 0 0-1.06 1.06l2.5 2.5a.75.75 0 0 0 1.06 0l2.5-2.5a.75.75 0 1 0-1.06-1.06L7.75 8.94V6H10a2 2 0 0 1 2 2v3a2 2 0 0 1-2 2H4a2 2 0 0 1-2-2V8a2 2 0 0 1 2-2h2.25Z"/>
  <path d="M4.268 14A2 2 0 0 0 6 15h6a2 2 0 0 0 2-2v-3a2 2 0 0 0-1-1.732V11a3 3 0 0 1-3 3H4.268Z"/>
</svg>
